libs/ui/packages/crypto-icons/src/svg/VERI.svg

<svg width="24" height="24" viewBox="0 0 24 24" fill="none">
<path d="M4.5 6.00009C5.328 6.00159 6.15675 6.00159 6.984 6.00009L8.55225 14.3851C8.577 14.5088 8.607 14.6311 8.63925 14.7526C8.76225 14.2651 8.8395 13.7671 8.94225 13.2751L10.3702 6.00009L12.7733 6.00084C11.892 9.92484 11.0107 13.8496 10.128 17.7736H7.14525C6.2625 13.8518 5.38125 9.93009 4.5 6.00759V6.00009ZM13.7355 9.69909C14.2582 9.04209 15.0938 8.74434 15.8993 8.69184C16.6942 8.63634 17.5507 8.70834 18.2242 9.18234C18.8205 9.59934 19.1475 10.3043 19.3027 11.0056C19.491 11.8846 19.5007 12.7876 19.5 13.6831H15.0975C15.1012 14.3453 15.06 15.0286 15.2812 15.6631C15.3885 15.9751 15.5887 16.2856 15.9067 16.3988C16.2457 16.5091 16.6537 16.4371 16.9012 16.1641C17.2312 15.7906 17.3003 15.2671 17.3722 14.7878H19.3702C19.3252 15.5828 19.1783 16.4228 18.6578 17.0476C18.1358 17.6971 17.2942 17.9626 16.4977 17.9948C15.6322 18.0278 14.6925 17.9101 14.0025 17.3273C13.3612 16.7926 13.0815 15.9451 12.9705 15.1328C12.8595 14.1976 12.8535 13.2511 12.9053 12.3113C12.975 11.3948 13.1407 10.4243 13.7347 9.69834L13.7355 9.69909ZM15.441 10.6328C15.1005 11.1233 15.0915 11.7548 15.0975 12.3331H17.3715C17.3363 11.7833 17.34 11.2028 17.0925 10.6996C16.785 10.0786 15.813 10.0763 15.4425 10.6336H15.441V10.6328Z" fill="#FF9933"/>
</svg>

<svg width="24" height="24" viewBox="0 0 24 24" fill="none"><path fill="#f93" d="M4.5 6q1.243.003 2.484 0l1.568 8.385q.038.185.087.368c.123-.488.2-.986.303-1.478L10.37 6h2.403q-1.321 5.888-2.645 11.774H7.145L4.5 6.008zm9.236 3.7c.522-.658 1.358-.956 2.163-1.008.795-.056 1.652.016 2.325.49.596.417.924 1.122 1.079 1.824.188.879.198 1.782.197 2.677h-4.402c.003.662-.038 1.346.183 1.98.107.312.308.623.626.736.339.11.747.038.994-.235.33-.373.4-.897.471-1.376h1.998c-.045.795-.192 1.635-.712 2.26-.522.65-1.364.915-2.16.947-.866.033-1.806-.085-2.496-.668-.64-.534-.92-1.382-1.032-2.194a16.3 16.3 0 0 1-.065-2.822c.07-.916.236-1.887.83-2.613zm1.705.933c-.34.49-.35 1.122-.344 1.7h2.275c-.036-.55-.032-1.13-.28-1.633-.307-.621-1.279-.624-1.65-.066z"/></svg>
